**kern	**kern	**dynam
*part1	*part1	*part1
*staff2	*staff1	*
*I"Piano	*	*
*clefF4	*clefG2	*
*k[b-]	*k[b-]	*
=1	=1	=1
*	*^	*
*	*	*^	*
!	!	!	!	!LO:DY:a
2C 2F#X	8r	8ryy@	4rgyy	p
.	8AL	4.A	.	.
.	8d	.	4d\	.
.	8f#XJ	.	.	.
=	=	=	=	=
2C 2G	8r	8ryy@	4rgyy	.
.	8B-L	4.B-	.	.
.	8d	.	4d\	.
.	8fnJ	.	.	.
=	=	=	=	=
2C 2E	8r	8ryy@	4rgyy	.
.	8B-L	4.B-	.	.
.	8d-X	.	4d-\	.
.	8gJ	.	.	.
=	=	=	=	=
2C 2F	8r	8ryy@	4rgyy	.
.	8AL	4.A	.	.
.	8c	.	4c\	.
.	8fJ	.	.	.
=	=	=	=	=
2C 2A-X	8r	8ryy@	4rgyy	.
.	8bnL	4.f 4.b	.	.
.	8d	.	4d\	.
.	8BnJ	.	.	.
=	=	=	=	=
2C 2G	8r	8ryy@	4rFyy	.
.	4.b-X	8fL	.	.
.	.	8e	4e/	.
.	.	8cJ	.	.
=	=	=	=	=
2C 2F	8r	8ryy@	4rFyy	.
.	4.f 4.a-X	8fL	.	.
.	.	(8d	4d/	.
.	.	8BnJ	.	.
*	*v	*v	*v	*
=	=	=
*-	*-	*-
!!!system-decoration: {(s1,s2)}
